X:1
T: Miss Graham (of Gartmore's) Strathspey
C:R. Mackintosh
R:Strathspey
Q: 128
K:G
M:4/4
L:1/16
|:G,G3 DB,3 A,c3 AG3|Fd3 Ac3 Bg3 dB3|G,G3 DB,3 A,C3 Ac3|Bd3 cA3 B,4 B,4|
G,G3 DB,3 A,c3 AG3|Fd3 Ac3 Bg3 dB3|G,G3 DB,3 A,C3 Ac3|Bd3 cA3 B,4 B,4|
g3a bg3 fa3 d4|e3f ge3 df3 B4|c3d ec3 Bd3 GB3|Ac3 EA3 F4 E2D2|
g3a bg3 fa3 df3|e3f ge3 df3 Bd3|ce3 Aa3 fd3 bg3|ea3 fd3 g3a g4:|
